src/16/panel/everpad-mono.svg

<svg xmlns="http://www.w3.org/2000/svg" width="16" height="16" version="1.1" xml:space="preserve">
 <defs>
  <style id="current-color-scheme" type="text/css">
   .ColorScheme-Text { color:#bebebe; } .ColorScheme-Highlight { color:#5294e2; }
  </style>
 </defs>
 <path style="fill:currentColor" class="ColorScheme-Text" d="M 7.0273438,1.0019531 C 6.5601946,0.99258208 6.055953,1.0355317 5.8920991,1.0800781 5.6294915,1.151787 5.3361439,1.294626 5.1772553,1.5195312 5.0691227,1.6727276 4.9975678,1.8631409 4.9975678,2.1347656 c 0,0.1531964 0.00255,-0.086211 0.00586,0.2321328 0.00441,0.3183442 0.00977,0.4335937 0.00977,0.4335937 0,0.2835762 -0.2368976,0.2246094 -0.5292968,0.2246094 l -1.249521,0 c -1.2834671,0 -1.2900724,2.053923 -1.203125,3.0198204 0.047446,0.3607176 0.4519566,2.8993743 0.8359375,3.671875 0.1511649,0.2966141 0.2505695,0.4251751 0.5429687,0.5566411 0.6510022,0.271625 2.1424992,0.571063 2.8398438,0.660156 0.6940343,0.08475 1.1343841,0.268492 1.3925781,-0.261719 0,0 0.052176,-0.132555 0.125,-0.328125 0.2250923,-0.6660234 0.2558594,-1.2544267 0.2558594,-1.6835938 0,-0.046719 0.068359,-0.046719 0.068359,0 0,0.3020468 -0.060474,1.3711478 0.7714843,1.6601558 0.3277079,0.114082 1.0095979,0.210615 1.6992192,0.291016 0.62452,0.06845 1.076172,0.310661 1.076172,1.873047 C 11.638672,13.435061 11.436883,14 10.363281,14 9.4971176,14 9,14.182459 9,13.512093 c 0,-0.543249 0.5173707,-0.484375 0.92673,-0.484375 0.180956,0 0.04687,-0.131069 0.04687,-0.466796 0,-0.334643 0.215594,-0.524951 0.01367,-0.529297 C 8.5738233,11.993595 8.0000001,12.027225 8,13.750375 8.000007,15.312761 8.5576343,15 10.5625,15 c 1.572335,0 2.12685,-0.05168 2.773438,-2.011719 0.1302,-0.386793 0.441075,-1.570961 0.630859,-3.5527341 0.120276,-1.2559926 -0.111505,-5.0417081 -0.296875,-6 C 13.566203,2.8792595 13.221656,2.7034166 12.916016,2.5925937 11.626149,2.0667283 10.506347,2.0166932 9.0917969,1.9754062 9.0311103,1.5853532 8.7514598,1.3591025 8.4414062,1.2363281 8.0254269,1.0728101 7.4944929,1.0113242 7.0273438,1.0019531 Z m 4.0117182,5 C 11.880711,6.0427837 12,7.209164 12,8 11.644252,7.7636088 11.208631,7.6214912 10.728516,7.5957031 10.473996,7.5785114 10.231382,7.6048678 10,7.6542969 10.067969,6.8999942 10.281289,5.9589723 11.039062,6.0019531 Z"/>
</svg>

<svg xmlns="http://www.w3.org/2000/svg" width="16" height="16"><defs><style id="current-color-scheme" type="text/css"></style></defs><path d="M7.027 1.002c-.467-.01-.971.034-1.135.078-.263.072-.556.215-.715.44-.108.153-.18.343-.18.615 0 .153.003-.086.006.232.005.318.01.433.01.433 0 .284-.237.225-.53.225H3.235c-1.283 0-1.29 2.054-1.203 3.02.048.36.452 2.9.836 3.672.151.296.25.425.543.556.651.272 2.143.572 2.84.66.694.085 1.134.27 1.393-.261 0 0 .052-.133.125-.328a5.135 5.135 0 0 0 .255-1.684c0-.047.069-.047.069 0 0 .302-.06 1.371.771 1.66.328.114 1.01.21 1.7.291.624.069 1.076.311 1.076 1.873 0 .951-.202 1.516-1.276 1.516C9.497 14 9 14.182 9 13.512c0-.543.517-.484.927-.484.18 0 .047-.131.047-.467 0-.335.215-.525.013-.53C8.574 11.995 8 12.028 8 13.752 8 15.312 8.558 15 10.563 15c1.572 0 2.126-.052 2.773-2.012.13-.387.441-1.57.63-3.552.121-1.256-.11-5.042-.296-6-.104-.557-.448-.733-.754-.843-1.29-.526-2.41-.576-3.824-.618-.06-.39-.34-.616-.65-.739-.417-.163-.948-.225-1.415-.234zm4.012 5C11.881 6.042 12 7.209 12 8a2.532 2.532 0 0 0-1.271-.404 2.62 2.62 0 0 0-.729.058c.068-.754.281-1.695 1.04-1.652z" fill="currentColor" color="#bebebe"/></svg>
